SVG/medium.svg

<?xml version="1.0" encoding="utf-8"?>
<!-- Generated by IcoMoon.io -->
<!DOCTYPE svg PUBLIC "-//W3C//DTD SVG 1.1//EN" "http://www.w3.org/Graphics/SVG/1.1/DTD/svg11.dtd">
<svg version="1.1" xmlns="http://www.w3.org/2000/svg" xmlns:xlink="http://www.w3.org/1999/xlink" width="14" height="14" viewBox="0 0 14 14">
<path fill="#444444" d="M14 10.406v1.633h-5.016v-1.633h1.047v-7.234h-0.047l-2.453 8.867h-1.898l-2.422-8.867h-0.062v7.234h1.055v1.633h-4.203v-1.633h0.539q0.164 0 0.336-0.152t0.172-0.293v-6.883q0-0.141-0.172-0.312t-0.336-0.172h-0.539v-1.633h5.25l1.727 6.414h0.047l1.742-6.414h5.234v1.633h-0.555q-0.148 0-0.32 0.172t-0.172 0.312v6.883q0 0.141 0.168 0.293t0.324 0.152h0.555z"></path>
</svg>

<svg xmlns="http://www.w3.org/2000/svg" viewBox="0 0 14 14"><path d="M14 10.406v1.633H8.984v-1.634h1.047V3.172h-.046L7.53 12.04H5.634L3.21 3.17h-.06v7.234h1.054v1.633H0v-1.634h.54q.164 0 .336-.152t.172-.293V3.08q0-.14-.172-.312T.54 2.594H0V.96h5.25L6.98 7.376h.047L8.767.96H14v1.634h-.554q-.148 0-.32.172t-.172.312V9.96q0 .142.168.294t.324.152H14z" /></svg>
